client/filepreviewer/pdfjs/web/images/secondaryToolbarButton-spreadNone.svg

<svg width="16" height="16" viewBox="0 0 16 16" fill="none" xmlns="http://www.w3.org/2000/svg">
<path d="M4 1.5C3.72421 1.5 3.5 1.72421 3.5 2V14C3.5 14.2758 3.72421 14.5 4 14.5H12C12.2758 14.5 12.5 14.2758 12.5 14V2C12.5 1.72421 12.2758 1.5 12 1.5H4ZM2 2C2 0.895786 2.89579 0 4 0H12C13.1042 0 14 0.895786 14 2V14C14 15.1042 13.1042 16 12 16H4C2.89579 16 2 15.1042 2 14V2Z" fill="black"/>
</svg>

<svg xmlns="http://www.w3.org/2000/svg" width="16" height="16" fill="none"><path fill="#000" d="M4 1.5a.5.5 0 0 0-.5.5v12a.5.5 0 0 0 .5.5h8a.5.5 0 0 0 .5-.5V2a.5.5 0 0 0-.5-.5zM2 2a2 2 0 0 1 2-2h8a2 2 0 0 1 2 2v12a2 2 0 0 1-2 2H4a2 2 0 0 1-2-2z"/></svg>
